X:11504
T:Mueira de Batribn (MQ 091)
R:Mueira
C:Tradicional
S:Msica Tradicional Asturiana, (C) Tello & Tito. Asturies, 2001.
S:http://pagina.de/MusTradAst <telloytito@asturies.org>
N:Mueira que se toca por la zona occidental de Asturias.
N:Es de posible origen gallego.
O:Batribn (Os Ozcos)
A:Asturies
Z:Manolo Quirs 091
M:6/8
L:1/8
Q:3/8=120
K:C
CEE
|: C2 E CDE|F2 D B,DD|B,2 D B,DD|A2 G CEE|
C2 E CDE|FED CB,D|A2 G FEF|A2 G cBA|
GAG FED|[1 C3 CEE :|[2 C3 cdc|
|: BAG ABA|GFE GGG|A2 G FEF|A2 G cdc|
BAG ABA|GFE GGG|GAG FED|[1 C3 cdc :|[2 C3 CDE|
|: FFF FGF|EDC CEF|EDC B,CD|A2 G CDE|
FFF FGF|EDC CDF|EDC B,CD|[1 C3 CDE :|[2 C6||
